assets/exit.svg

<?xml version="1.0" encoding="iso-8859-1"?>
<!-- Generator: Adobe Illustrator 19.0.0, SVG Export Plug-In . SVG Version: 6.00 Build 0)  -->
<svg version="1.1" id="Capa_1" xmlns="http://www.w3.org/2000/svg" xmlns:xlink="http://www.w3.org/1999/xlink" x="0px" y="0px"
	 viewBox="0 0 512 512" style="enable-background:new 0 0 512 512;" xml:space="preserve">
<g>
	<g>
		<path d="M294.625,266.455c-2.777-2.77-4.337-6.532-4.337-10.455s1.561-7.685,4.337-10.455l89.883-89.685
			c3.764-3.756,5.838-8.755,5.839-14.073c0-5.318-2.074-10.317-5.839-14.074c-7.744-7.726-20.344-7.724-28.086,0l-89.99,89.793
			c-5.765,5.752-15.098,5.752-20.863,0l-89.99-89.793c-7.744-7.725-20.342-7.725-28.084,0c-3.765,3.756-5.839,8.756-5.839,14.074
			c0,5.318,2.073,10.317,5.838,14.073l89.883,89.685c2.777,2.77,4.337,6.532,4.337,10.455s-1.561,7.685-4.337,10.455l-89.883,89.685
			c-3.764,3.756-5.838,8.755-5.839,14.073c0,5.318,2.074,10.318,5.84,14.074c7.741,7.726,20.341,7.724,28.084,0l89.99-89.793
			c2.883-2.876,6.657-4.315,10.432-4.315s7.549,1.438,10.432,4.315l89.99,89.793c7.744,7.725,20.342,7.725,28.084,0
			c3.765-3.756,5.839-8.756,5.839-14.074c0-5.318-2.073-10.317-5.838-14.073L294.625,266.455z"/>
	</g>
</g>
<g>
	<g>
		<path d="M438.154,0H73.846C33.127,0,0,33.127,0,73.846v364.308C0,478.873,33.127,512,73.846,512h364.308
			C478.873,512,512,478.873,512,438.154V73.846C512,33.127,478.873,0,438.154,0z M405.371,335.23
			c9.359,9.337,14.512,21.762,14.513,34.981c0,13.221-5.154,25.645-14.512,34.984c-19.248,19.204-50.565,19.203-69.813,0.001
			L256,325.812l-79.559,79.384c-9.623,9.601-22.266,14.402-34.907,14.403c-12.642,0.002-25.281-4.8-34.905-14.403
			c-9.36-9.338-14.513-21.763-14.513-34.983c0-13.22,5.153-25.644,14.512-34.982L186.033,256l-79.405-79.23
			c-9.359-9.337-14.512-21.762-14.513-34.981c0-13.221,5.154-25.645,14.512-34.984c19.248-19.204,50.565-19.203,69.813-0.001
			L256,186.188l79.559-79.384c19.248-19.203,50.565-19.204,69.811,0c0,0,0.001,0,0.002,0c9.359,9.339,14.512,21.764,14.512,34.984
			c-0.001,13.22-5.154,25.644-14.513,34.981L325.967,256L405.371,335.23z"/>
	</g>
</g>
<g>
</g>
<g>
</g>
<g>
</g>
<g>
</g>
<g>
</g>
<g>
</g>
<g>
</g>
<g>
</g>
<g>
</g>
<g>
</g>
<g>
</g>
<g>
</g>
<g>
</g>
<g>
</g>
<g>
</g>
</svg>

<svg width="512" height="512" viewBox="0 0 512 512" fill="none" xmlns="http://www.w3.org/2000/svg">
<path d="M294.625 266.455C291.848 263.685 290.288 259.923 290.288 256C290.288 252.077 291.849 248.315 294.625 245.545L384.508 155.86C388.272 152.104 390.346 147.105 390.347 141.787C390.347 136.469 388.273 131.47 384.508 127.713C376.764 119.987 364.164 119.989 356.422 127.713L266.432 217.506C260.667 223.258 251.334 223.258 245.569 217.506L155.579 127.713C147.835 119.988 135.237 119.988 127.495 127.713C123.73 131.469 121.656 136.469 121.656 141.787C121.656 147.105 123.729 152.104 127.494 155.86L217.377 245.545C220.154 248.315 221.714 252.077 221.714 256C221.714 259.923 220.153 263.685 217.377 266.455L127.494 356.14C123.73 359.896 121.656 364.895 121.655 370.213C121.655 375.531 123.729 380.531 127.495 384.287C135.236 392.013 147.836 392.011 155.579 384.287L245.569 294.494C248.452 291.618 252.226 290.179 256.001 290.179C259.776 290.179 263.55 291.617 266.433 294.494L356.423 384.287C364.167 392.012 376.765 392.012 384.507 384.287C388.272 380.531 390.346 375.531 390.346 370.213C390.346 364.895 388.273 359.896 384.508 356.14L294.625 266.455Z" fill="#FFB68D"/>
<path d="M438.154 0H73.846C33.127 0 0 33.127 0 73.846V438.154C0 478.873 33.127 512 73.846 512H438.154C478.873 512 512 478.873 512 438.154V73.846C512 33.127 478.873 0 438.154 0ZM405.371 335.23C414.73 344.567 419.883 356.992 419.884 370.211C419.884 383.432 414.73 395.856 405.372 405.195C386.124 424.399 354.807 424.398 335.559 405.196L256 325.812L176.441 405.196C166.818 414.797 154.175 419.598 141.534 419.599C128.892 419.601 116.253 414.799 106.629 405.196C97.269 395.858 92.116 383.433 92.116 370.213C92.116 356.993 97.269 344.569 106.628 335.231L186.033 256L106.628 176.77C97.269 167.433 92.116 155.008 92.115 141.789C92.115 128.568 97.269 116.144 106.627 106.805C125.875 87.601 157.192 87.602 176.44 106.804L256 186.188L335.559 106.804C354.807 87.601 386.124 87.6 405.37 106.804C405.37 106.804 405.371 106.804 405.372 106.804C414.731 116.143 419.884 128.568 419.884 141.788C419.883 155.008 414.73 167.432 405.371 176.769L325.967 256L405.371 335.23Z" fill="black"/>
</svg>
